poi/svg/1507.svg

<?xml version="1.0" encoding="UTF-8" standalone="no"?>
<svg
   xmlns:dc="http://purl.org/dc/elements/1.1/"
   xmlns:cc="http://creativecommons.org/ns#"
   xmlns:rdf="http://www.w3.org/1999/02/22-rdf-syntax-ns#"
   xmlns:svg="http://www.w3.org/2000/svg"
   xmlns="http://www.w3.org/2000/svg"
   xmlns:sodipodi="http://sodipodi.sourceforge.net/DTD/sodipodi-0.dtd"
   xmlns:inkscape="http://www.inkscape.org/namespaces/inkscape"
   inkscape:version="1.0 (4035a4fb49, 2020-05-01)"
   sodipodi:docname="1507.svg"
   id="svg20"
   version="1.2"
   viewBox="0 0 42.519639 42.519639"
   height="14.999999mm"
   width="14.999999mm">
  <metadata
     id="metadata24">
    <rdf:RDF>
      <cc:Work
         rdf:about="">
        <dc:format>image/svg+xml</dc:format>
        <dc:type
           rdf:resource="http://purl.org/dc/dcmitype/StillImage" />
        <dc:title>Qt SVG Document</dc:title>
      </cc:Work>
    </rdf:RDF>
  </metadata>
  <sodipodi:namedview
     inkscape:current-layer="svg20"
     inkscape:window-maximized="0"
     inkscape:window-y="0"
     inkscape:window-x="0"
     inkscape:cy="28.346482"
     inkscape:cx="28.346482"
     inkscape:zoom="5.8410537"
     showgrid="false"
     id="namedview22"
     inkscape:window-height="480"
     inkscape:window-width="1034"
     inkscape:pageshadow="2"
     inkscape:pageopacity="0"
     guidetolerance="10"
     gridtolerance="10"
     objecttolerance="10"
     borderopacity="1"
     bordercolor="#666666"
     pagecolor="#ffffff" />
  <title
     id="title2">Qt SVG Document</title>
  <desc
     id="desc4">Generated with Qt</desc>
  <defs
     id="defs6" />
  <g
     transform="translate(5.25984,5.25984)"
     id="g18"
     stroke-linejoin="bevel"
     stroke-linecap="square"
     fill-rule="evenodd"
     stroke-width="1"
     stroke="#000000"
     fill="none">
    <g
       id="g10"
       font-style="normal"
       font-weight="400"
       font-size="7.8px"
       font-family="'MS Shell Dlg 2'"
       stroke="none"
       fill-opacity="1"
       fill="#4c62ad">
      <path
         id="path8"
         d="M 37.2598,16 C 37.2598,27.7415 27.7415,37.2598 16,37.2598 4.25851,37.2598 -5.25984,27.7415 -5.25984,16 -5.25984,4.25851 4.25851,-5.25984 16,-5.25984 27.7415,-5.25984 37.2598,4.25851 37.2598,16"
         fill-rule="evenodd"
         vector-effect="non-scaling-stroke" />
    </g>
    <g
       id="g14"
       font-style="normal"
       font-weight="400"
       font-size="7.8px"
       font-family="'MS Shell Dlg 2'"
       transform="translate(16.5669,12.5984)"
       stroke="none"
       fill-opacity="0.94902"
       fill="#ffffff">
      <path
         id="path12"
         d="m -7.81934,8.95996 c 0,-0.13997 0.035,-0.25895 0.10498,-0.35693 0.06999,-0.09798 0.14698,-0.14698 0.23096,-0.14698 H 4.3584 C 4.41439,8.2181 4.48438,7.86466 4.56836,7.39575 4.65234,6.92684 4.69434,6.32845 4.69434,5.60059 4.69434,4.91471 4.65234,4.33732 4.56836,3.86841 4.48438,3.3995 4.41439,3.04606 4.3584,2.80811 H -7.4834 c -0.22396,0 -0.33594,-0.18197 -0.33594,-0.5459 0,-0.13998 0.035,-0.26245 0.10498,-0.36743 C -7.64437,1.78979 -7.56738,1.7373 -7.4834,1.7373 H 4.69434 c 0.13997,0 0.24495,0.07349 0.31494,0.22046 0.06998,0.14698 0.10498,0.30445 0.10498,0.47242 0.06998,0.22395 0.14697,0.4969 0.23095,0.81884 0.05599,0.25196 0.11198,0.5809 0.16797,0.98682 0.05599,0.40592 0.08399,0.86084 0.08399,1.36475 0,0.54589 -0.028,1.02181 -0.08399,1.42773 C 5.45719,7.43424 5.4012,7.76318 5.34521,8.01514 5.26123,8.33708 5.18424,8.59603 5.11426,8.79199 c 0,0.16797 -0.035,0.33244 -0.10498,0.49341 C 4.93929,9.44637 4.83431,9.52686 4.69434,9.52686 H -7.4834 c -0.22396,0 -0.33594,-0.18897 -0.33594,-0.5669 m 2.28858,-2.01562 c 1.0778,0 2.09961,0 3.06543,0 0.96582,0 1.812661,0 2.5405253,0 0.7278647,0 1.2982547,-0.007 1.7111847,-0.021 C 2.1993,6.90934 2.40576,6.88835 2.40576,6.86035 2.40576,6.83236 2.1993,6.81136 1.78638,6.79736 1.37345,6.78337 0.80306,6.76937 0.0751953,6.75537 -0.652669,6.74137 -1.49951,6.72738 -2.46533,6.71338 c -0.96582,-0.014 -1.98763,-0.021 -3.06543,-0.021 h -1.17578 c 0,-0.15397 0.01399,-0.30794 0.04199,-0.46191 0.02799,-0.15397 0.04199,-0.30095 0.04199,-0.44092 h 1.0918 c 1.0778,0 2.09961,-0.007 3.06543,-0.021 C -1.49951,5.75456 -0.652669,5.74056 0.0751953,5.72656 0.80306,5.71257 1.37345,5.69857 1.78638,5.68457 2.1993,5.67057 2.40576,5.64258 2.40576,5.60059 2.40576,5.57259 2.1993,5.5516 1.78638,5.5376 1.37345,5.5236 0.80306,5.5096 0.0751953,5.49561 -0.652669,5.48161 -1.49951,5.46761 -2.46533,5.45361 -3.43115,5.43962 -4.45296,5.43262 -5.53076,5.43262 h -1.0918 c 0,-0.13998 -0.014,-0.27995 -0.04199,-0.41992 -0.028,-0.13998 -0.04199,-0.28695 -0.04199,-0.44092 h 1.17578 c 1.0778,0 2.09961,-0.007 3.06543,-0.021 0.96582,-0.014 1.812661,-0.02799 2.5405253,-0.04199 C 0.80306,4.49479 1.37345,4.48079 1.78638,4.4668 2.1993,4.4528 2.40576,4.4318 2.40576,4.40381 c 0,-0.028 -0.20646,-0.04899 -0.61938,-0.06299 -0.41293,-0.014 -0.98332,-0.021 -1.7111847,-0.021 -0.7278643,0 -1.5747053,0 -2.5405253,0 -0.96582,0 -1.98763,0 -3.06543,0 H -6.79053 C -6.84652,4.15186 -6.90251,3.99438 -6.9585,3.84741 -7.01449,3.70044 -7.07048,3.57096 -7.12646,3.45898 -7.18245,3.34701 -7.23844,3.24902 -7.29443,3.16504 H 3.91748 c 0.028,0.16797 0.05599,0.37793 0.08398,0.62988 0.028,0.23796 0.049,0.50741 0.06299,0.80835 0.014,0.30095 0.021,0.63338 0.021,0.99732 0,0.40592 -0.007,0.75236 -0.021,1.0393 C 4.05046,6.92684 4.02946,7.18929 4.00146,7.42725 3.97347,7.6792 3.94548,7.90316 3.91748,8.09912 H -7.29443 C -7.23844,8.01514 -7.18245,7.91715 -7.12646,7.80518 -7.07048,7.6932 -7.01449,7.57072 -6.9585,7.43774 -6.90251,7.30477 -6.84652,7.1403 -6.79053,6.94434 h 1.25977 M 7.27686,11.2065 c 0,0.084 -0.042,0.175 -0.12598,0.273 -0.08399,0.098 -0.20296,0.147 -0.35693,0.147 H -8.63818 c -0.08399,0.1819 -0.18897,0.4514 -0.31495,0.8083 -0.12597,0.3569 -0.18896,0.7944 -0.18896,1.3123 0,0.5739 0.06299,1.0393 0.18896,1.3962 0.12598,0.3569 0.23096,0.6334 0.31495,0.8294 H 6.79395 c 0.32194,0 0.48291,0.1469 0.48291,0.4409 0,0.2239 -0.16097,0.3359 -0.48291,0.3359 H -9.24707 c -0.13997,0 -0.24495,-0.049 -0.31494,-0.147 -0.06999,-0.0979 -0.10498,-0.2239 -0.10498,-0.3779 -0.11198,-0.14 -0.22396,-0.3359 -0.33591,-0.5879 -0.098,-0.2379 -0.175,-0.5074 -0.231,-0.8083 -0.056,-0.301 -0.084,-0.6614 -0.084,-1.0813 0,-0.7279 0.105,-1.3158 0.315,-1.7637 0.11195,-0.238 0.22393,-0.4409 0.33591,-0.6089 0,-0.168 0.03499,-0.3184 0.10498,-0.4514 0.06999,-0.133 0.17497,-0.1995 0.31494,-0.1995 H 6.79395 c 0.32194,0 0.48291,0.161 0.48291,0.4829 m -1.76368,1.5957 c -1.80566,0 -3.46785,0.007 -4.986569,0.021 -1.518717,0.014 -2.816971,0.028 -3.894771,0.042 -1.0778,0.014 -1.91765,0.028 -2.51954,0.042 -0.60188,0.014 -0.90283,0.035 -0.90283,0.063 0,0.056 0.29395,0.091 0.88184,0.105 0.58789,0.014 1.42073,0.028 2.49853,0.042 1.0778,0.014 2.36906,0.028 3.873783,0.042 1.504717,0.014 3.159917,0.035 4.965577,0.063 -0.08399,0.1119 -0.12598,0.2869 -0.12598,0.5249 0,0.1399 0.007,0.2519 0.021,0.3359 0.014,0.084 0.04899,0.182 0.10498,0.294 -1.80566,0 -3.46086,0.007 -4.965577,0.0209 -1.504723,0.014 -2.795983,0.028 -3.873783,0.042 -1.0778,0.014 -1.91064,0.028 -2.49853,0.042 -0.58789,0.014 -0.88184,0.035 -0.88184,0.063 0,0.042 0.30095,0.07 0.90283,0.084 0.60189,0.014 1.44174,0.035 2.51954,0.063 1.0778,0.028 2.376054,0.049 3.894771,0.063 1.518719,0.014 3.180909,0.035 4.986569,0.063 0.13998,0.2799 0.27995,0.4899 0.41993,0.6299 0.09798,0.1259 0.18896,0.2029 0.27294,0.2309 H -8.5542 c -0.02799,-0.154 -0.05599,-0.3289 -0.08398,-0.5249 -0.028,-0.168 -0.04899,-0.3674 -0.06299,-0.5984 -0.014,-0.2309 -0.021,-0.5004 -0.021,-0.8083 0,-0.294 0.007,-0.5564 0.021,-0.7874 0.014,-0.2309 0.03499,-0.4304 0.06299,-0.5984 0.02799,-0.1959 0.05599,-0.3849 0.08398,-0.5669 H 6.20605 c -0.08398,0.098 -0.17496,0.203 -0.27294,0.315 -0.16797,0.2239 -0.30795,0.4549 -0.41993,0.6928 M 12.2109,-0.110352 c 0.154,0.05599 0.28,0.136475 0.378,0.241456 0.0979,0.10498 0.1469,0.227457 0.1469,0.367431 0,0.363932 -0.2029,0.545895 -0.6088,0.545895 L 2.32178,0.666504 C 2.32178,0.862467 2.24479,1.01994 2.09082,1.13892 1.93685,1.25789 1.77588,1.28939 1.60791,1.2334 L -1.75146,0.666504 c -0.18197,0 -0.31495,-0.062988 -0.39893,-0.188965 C -2.23438,0.351563 -2.27637,0.211589 -2.27637,0.0576172 L -11.8086,-2.60889 c -0.182,-0.05599 -0.3009,-0.14697 -0.3569,-0.27295 -0.056,-0.12597 -0.084,-0.25895 -0.084,-0.39892 0.056,-0.15397 0.1505,-0.27995 0.2834,-0.37793 0.133,-0.09798 0.2695,-0.11898 0.4095,-0.06299 1.4557,0.43392 2.84143,0.84684 4.15719,1.23877 1.11979,0.34993 2.23958,0.71737 3.35937,1.10229 1.11979,0.384933 1.99463,0.696375 2.62451,0.934331 l 3.02344,0.4199218 C 2.26579,-0.0823568 3.18262,-0.110352 4.3584,-0.110352 c 1.17578,0 2.35156,0 3.52734,0 H 12.2109 M -0.59668,-0.803223 -10.4858,-4.05762 c 0.54586,-0.11198 0.97628,-0.37793 1.29122,-0.79785 0.31494,-0.41992 0.58439,-0.90283 0.80835,-1.44873 0.60189,0 1.31925,0.15747 2.1521,0.47241 0.83284,0.31494 1.6202,0.67538 2.36206,1.0813 0.89583,0.46192 1.81966,0.97982 2.77148,1.55371 -0.43392,-0.62988 -0.97981,-1.23177 -1.63769,-1.80566 -0.57389,-0.48991 -1.27726,-0.98682 -2.11011,-1.49072 -0.83284,-0.50391 -1.85115,-0.90983 -3.05493,-1.21778 0.05599,-0.12597 0.08398,-0.21696 0.08398,-0.27295 0,-0.05599 0.014,-0.11198 0.042,-0.16797 0,-0.05599 0.01399,-0.08398 0.04199,-0.08398 1.25976,0.37793 2.43555,0.86784 3.52734,1.46973 0.92383,0.5179 1.83716,1.18278 2.73999,1.99463 0.902834,0.81184 1.550214,1.80566 1.942141,2.98144 C 1.6779,-2.72786 2.92017,-3.42773 4.20093,-3.88965 5.48169,-4.35156 6.66097,-4.6665 7.73877,-4.83447 c 1.27376,-0.20996 2.52653,-0.27995 3.75833,-0.20996 -0.028,0.19596 -0.042,0.36393 -0.042,0.5039 -0.042,0.13998 -0.063,0.28345 -0.063,0.43042 0,0.14698 0,0.27645 0,0.38843 -1.0218,-0.05599 -2.03663,-0.0035 -3.04444,0.15747 -1.00782,0.16097 -1.91065,0.35344 -2.7085,0.57739 -0.95182,0.27995 -1.82666,0.59489 -2.62451,0.94483 0.79785,-0.19597 1.67269,-0.35694 2.62451,-0.48291 0.79785,-0.11198 1.70068,-0.19597 2.7085,-0.25196 1.00781,-0.05599 2.02264,-0.02799 3.04444,0.08399 0,0.20996 0.063,0.42692 0.189,0.65088 -0.6859,-0.028 -1.3823,-0.014 -2.08916,0.04199 -0.70687,0.05599 -1.34725,0.11198 -1.92114,0.16797 -0.68587,0.08398 -1.34375,0.18896 -1.97363,0.31494 0.71387,0.02799 1.44173,0.05599 2.18359,0.08398 0.67188,0.028 1.38574,0.06299 2.1416,0.10498 0.75584,0.042 1.49074,0.09099 2.20464,0.14698 0.0839,0.08398 0.1119,0.11198 0.0839,0.08398 -0.028,-0.02799 0.035,0 0.189,0.08399 L 0.915039,-0.530273 -0.59668,-0.803223"
         fill-rule="evenodd"
         vector-effect="none" />
    </g>
    <g
       id="g16"
       font-style="normal"
       font-weight="400"
       font-size="7.8px"
       font-family="'MS Shell Dlg 2'"
       stroke="none"
       fill-opacity="1"
       fill="#4c62ad" />
  </g>
</svg>

<?xml version="1.0" encoding="UTF-8" standalone="no"?>
<svg width="11.2889mm" height="11.2889mm"
 viewBox="0 0 32 32"
 xmlns="http://www.w3.org/2000/svg" xmlns:xlink="http://www.w3.org/1999/xlink"  version="1.2" baseProfile="tiny">
<title>Qt SVG Document</title>
<desc>Generated with Qt</desc>
<defs>
</defs>
<g fill="none" stroke="black" stroke-width="1" fill-rule="evenodd" stroke-linecap="square" stroke-linejoin="bevel" >

<g fill="#4c62ad" fill-opacity="1" stroke="none" transform="matrix(1,0,0,1,0,0)"
font-family="MS Shell Dlg 2" font-size="7.8" font-weight="400" font-style="normal" 
>
<path vector-effect="non-scaling-stroke" fill-rule="evenodd" d="M37.2598,16 C37.2598,27.7415 27.7415,37.2598 16,37.2598 C4.25851,37.2598 -5.25984,27.7415 -5.25984,16 C-5.25984,4.25851 4.25851,-5.25984 16,-5.25984 C27.7415,-5.25984 37.2598,4.25851 37.2598,16 "/>
</g>

<g fill="#ffffff" fill-opacity="0.94902" stroke="none" transform="matrix(1,0,0,1,16.5669,12.5984)"
font-family="MS Shell Dlg 2" font-size="7.8" font-weight="400" font-style="normal" 
>
<path vector-effect="none" fill-rule="evenodd" d="M-7.81934,8.95996 C-7.81934,8.81999 -7.78434,8.70101 -7.71436,8.60303 C-7.64437,8.50505 -7.56738,8.45605 -7.4834,8.45605 L4.3584,8.45605 C4.41439,8.2181 4.48438,7.86466 4.56836,7.39575 C4.65234,6.92684 4.69434,6.32845 4.69434,5.60059 C4.69434,4.91471 4.65234,4.33732 4.56836,3.86841 C4.48438,3.3995 4.41439,3.04606 4.3584,2.80811 L-7.4834,2.80811 C-7.70736,2.80811 -7.81934,2.62614 -7.81934,2.26221 C-7.81934,2.12223 -7.78434,1.99976 -7.71436,1.89478 C-7.64437,1.78979 -7.56738,1.7373 -7.4834,1.7373 L4.69434,1.7373 C4.83431,1.7373 4.93929,1.81079 5.00928,1.95776 C5.07926,2.10474 5.11426,2.26221 5.11426,2.43018 C5.18424,2.65413 5.26123,2.92708 5.34521,3.24902 C5.4012,3.50098 5.45719,3.82992 5.51318,4.23584 C5.56917,4.64176 5.59717,5.09668 5.59717,5.60059 C5.59717,6.14648 5.56917,6.6224 5.51318,7.02832 C5.45719,7.43424 5.4012,7.76318 5.34521,8.01514 C5.26123,8.33708 5.18424,8.59603 5.11426,8.79199 C5.11426,8.95996 5.07926,9.12443 5.00928,9.2854 C4.93929,9.44637 4.83431,9.52686 4.69434,9.52686 L-7.4834,9.52686 C-7.70736,9.52686 -7.81934,9.33789 -7.81934,8.95996 M-5.53076,6.94434 C-4.45296,6.94434 -3.43115,6.94434 -2.46533,6.94434 C-1.49951,6.94434 -0.652669,6.94434 0.0751953,6.94434 C0.80306,6.94434 1.37345,6.93734 1.78638,6.92334 C2.1993,6.90934 2.40576,6.88835 2.40576,6.86035 C2.40576,6.83236 2.1993,6.81136 1.78638,6.79736 C1.37345,6.78337 0.80306,6.76937 0.0751953,6.75537 C-0.652669,6.74137 -1.49951,6.72738 -2.46533,6.71338 C-3.43115,6.69938 -4.45296,6.69238 -5.53076,6.69238 L-6.70654,6.69238 C-6.70654,6.53841 -6.69255,6.38444 -6.66455,6.23047 C-6.63656,6.0765 -6.62256,5.92952 -6.62256,5.78955 L-5.53076,5.78955 C-4.45296,5.78955 -3.43115,5.78255 -2.46533,5.76855 C-1.49951,5.75456 -0.652669,5.74056 0.0751953,5.72656 C0.80306,5.71257 1.37345,5.69857 1.78638,5.68457 C2.1993,5.67057 2.40576,5.64258 2.40576,5.60059 C2.40576,5.57259 2.1993,5.5516 1.78638,5.5376 C1.37345,5.5236 0.80306,5.5096 0.0751953,5.49561 C-0.652669,5.48161 -1.49951,5.46761 -2.46533,5.45361 C-3.43115,5.43962 -4.45296,5.43262 -5.53076,5.43262 L-6.62256,5.43262 C-6.62256,5.29264 -6.63656,5.15267 -6.66455,5.0127 C-6.69255,4.87272 -6.70654,4.72575 -6.70654,4.57178 L-5.53076,4.57178 C-4.45296,4.57178 -3.43115,4.56478 -2.46533,4.55078 C-1.49951,4.53678 -0.652669,4.52279 0.0751953,4.50879 C0.80306,4.49479 1.37345,4.48079 1.78638,4.4668 C2.1993,4.4528 2.40576,4.4318 2.40576,4.40381 C2.40576,4.37581 2.1993,4.35482 1.78638,4.34082 C1.37345,4.32682 0.80306,4.31982 0.0751953,4.31982 C-0.652669,4.31982 -1.49951,4.31982 -2.46533,4.31982 C-3.43115,4.31982 -4.45296,4.31982 -5.53076,4.31982 L-6.79053,4.31982 C-6.84652,4.15186 -6.90251,3.99438 -6.9585,3.84741 C-7.01449,3.70044 -7.07048,3.57096 -7.12646,3.45898 C-7.18245,3.34701 -7.23844,3.24902 -7.29443,3.16504 L3.91748,3.16504 C3.94548,3.33301 3.97347,3.54297 4.00146,3.79492 C4.02946,4.03288 4.05046,4.30233 4.06445,4.60327 C4.07845,4.90422 4.08545,5.23665 4.08545,5.60059 C4.08545,6.00651 4.07845,6.35295 4.06445,6.63989 C4.05046,6.92684 4.02946,7.18929 4.00146,7.42725 C3.97347,7.6792 3.94548,7.90316 3.91748,8.09912 L-7.29443,8.09912 C-7.23844,8.01514 -7.18245,7.91715 -7.12646,7.80518 C-7.07048,7.6932 -7.01449,7.57072 -6.9585,7.43774 C-6.90251,7.30477 -6.84652,7.1403 -6.79053,6.94434 L-5.53076,6.94434 M7.27686,11.2065 C7.27686,11.2905 7.23486,11.3815 7.15088,11.4795 C7.06689,11.5775 6.94792,11.6265 6.79395,11.6265 L-8.63818,11.6265 C-8.72217,11.8084 -8.82715,12.0779 -8.95313,12.4348 C-9.0791,12.7917 -9.14209,13.2292 -9.14209,13.7471 C-9.14209,14.321 -9.0791,14.7864 -8.95313,15.1433 C-8.82715,15.5002 -8.72217,15.7767 -8.63818,15.9727 L6.79395,15.9727 C7.11589,15.9727 7.27686,16.1196 7.27686,16.4136 C7.27686,16.6375 7.11589,16.7495 6.79395,16.7495 L-9.24707,16.7495 C-9.38704,16.7495 -9.49202,16.7005 -9.56201,16.6025 C-9.632,16.5046 -9.66699,16.3786 -9.66699,16.2246 C-9.77897,16.0846 -9.89095,15.8887 -10.0029,15.6367 C-10.1009,15.3988 -10.1779,15.1293 -10.2339,14.8284 C-10.2899,14.5274 -10.3179,14.167 -10.3179,13.7471 C-10.3179,13.0192 -10.2129,12.4313 -10.0029,11.9834 C-9.89095,11.7454 -9.77897,11.5425 -9.66699,11.3745 C-9.66699,11.2065 -9.632,11.0561 -9.56201,10.9231 C-9.49202,10.7901 -9.38704,10.7236 -9.24707,10.7236 L6.79395,10.7236 C7.11589,10.7236 7.27686,10.8846 7.27686,11.2065 M5.51318,12.8022 C3.70752,12.8022 2.04533,12.8092 0.526611,12.8232 C-0.992106,12.8372 -2.29036,12.8512 -3.36816,12.8652 C-4.44596,12.8792 -5.28581,12.8932 -5.8877,12.9072 C-6.48958,12.9212 -6.79053,12.9422 -6.79053,12.9702 C-6.79053,13.0262 -6.49658,13.0612 -5.90869,13.0752 C-5.3208,13.0892 -4.48796,13.1032 -3.41016,13.1172 C-2.33236,13.1312 -1.0411,13.1452 0.463623,13.1592 C1.96834,13.1732 3.62354,13.1942 5.4292,13.2222 C5.34521,13.3341 5.30322,13.5091 5.30322,13.7471 C5.30322,13.887 5.31022,13.999 5.32422,14.083 C5.33822,14.167 5.37321,14.265 5.4292,14.377 C3.62354,14.377 1.96834,14.384 0.463623,14.3979 C-1.0411,14.4119 -2.33236,14.4259 -3.41016,14.4399 C-4.48796,14.4539 -5.3208,14.4679 -5.90869,14.4819 C-6.49658,14.4959 -6.79053,14.5169 -6.79053,14.5449 C-6.79053,14.5869 -6.48958,14.6149 -5.8877,14.6289 C-5.28581,14.6429 -4.44596,14.6639 -3.36816,14.6919 C-2.29036,14.7199 -0.992106,14.7409 0.526611,14.7549 C2.04533,14.7689 3.70752,14.7899 5.51318,14.8179 C5.65316,15.0978 5.79313,15.3078 5.93311,15.4478 C6.03109,15.5737 6.12207,15.6507 6.20605,15.6787 L-8.5542,15.6787 C-8.58219,15.5247 -8.61019,15.3498 -8.63818,15.1538 C-8.66618,14.9858 -8.68717,14.7864 -8.70117,14.5554 C-8.71517,14.3245 -8.72217,14.055 -8.72217,13.7471 C-8.72217,13.4531 -8.71517,13.1907 -8.70117,12.9597 C-8.68717,12.7288 -8.66618,12.5293 -8.63818,12.3613 C-8.61019,12.1654 -8.58219,11.9764 -8.5542,11.7944 L6.20605,11.7944 C6.12207,11.8924 6.03109,11.9974 5.93311,12.1094 C5.76514,12.3333 5.62516,12.5643 5.51318,12.8022 M12.2109,-0.110352 C12.3649,-0.054362 12.4909,0.026123 12.5889,0.131104 C12.6868,0.236084 12.7358,0.358561 12.7358,0.498535 C12.7358,0.862467 12.5329,1.04443 12.127,1.04443 L2.32178,0.666504 C2.32178,0.862467 2.24479,1.01994 2.09082,1.13892 C1.93685,1.25789 1.77588,1.28939 1.60791,1.2334 L-1.75146,0.666504 C-1.93343,0.666504 -2.06641,0.603516 -2.15039,0.477539 C-2.23438,0.351563 -2.27637,0.211589 -2.27637,0.0576172 L-11.8086,-2.60889 C-11.9906,-2.66488 -12.1095,-2.75586 -12.1655,-2.88184 C-12.2215,-3.00781 -12.2495,-3.14079 -12.2495,-3.28076 C-12.1935,-3.43473 -12.099,-3.56071 -11.9661,-3.65869 C-11.8331,-3.75667 -11.6966,-3.77767 -11.5566,-3.72168 C-10.1009,-3.28776 -8.71517,-2.87484 -7.39941,-2.48291 C-6.27962,-2.13298 -5.15983,-1.76554 -4.04004,-1.38062 C-2.92025,-0.995687 -2.04541,-0.684245 -1.41553,-0.446289 L1.60791,-0.0263672 C2.26579,-0.0823568 3.18262,-0.110352 4.3584,-0.110352 C5.53418,-0.110352 6.70996,-0.110352 7.88574,-0.110352 L12.2109,-0.110352 M-0.59668,-0.803223 L-10.4858,-4.05762 C-9.93994,-4.1696 -9.50952,-4.43555 -9.19458,-4.85547 C-8.87964,-5.27539 -8.61019,-5.7583 -8.38623,-6.3042 C-7.78434,-6.3042 -7.06698,-6.14673 -6.23413,-5.83179 C-5.40129,-5.51685 -4.61393,-5.15641 -3.87207,-4.75049 C-2.97624,-4.28857 -2.05241,-3.77067 -1.10059,-3.19678 C-1.53451,-3.82666 -2.0804,-4.42855 -2.73828,-5.00244 C-3.31217,-5.49235 -4.01554,-5.98926 -4.84839,-6.49316 C-5.68123,-6.99707 -6.69954,-7.40299 -7.90332,-7.71094 C-7.84733,-7.83691 -7.81934,-7.9279 -7.81934,-7.98389 C-7.81934,-8.03988 -7.80534,-8.09587 -7.77734,-8.15186 C-7.77734,-8.20785 -7.76335,-8.23584 -7.73535,-8.23584 C-6.47559,-7.85791 -5.2998,-7.368 -4.20801,-6.76611 C-3.28418,-6.24821 -2.37085,-5.58333 -1.46802,-4.77148 C-0.565186,-3.95964 0.082194,-2.96582 0.474121,-1.79004 C1.6779,-2.72786 2.92017,-3.42773 4.20093,-3.88965 C5.48169,-4.35156 6.66097,-4.6665 7.73877,-4.83447 C9.01253,-5.04443 10.2653,-5.11442 11.4971,-5.04443 C11.4691,-4.84847 11.4551,-4.6805 11.4551,-4.54053 C11.4131,-4.40055 11.3921,-4.25708 11.3921,-4.11011 C11.3921,-3.96313 11.3921,-3.83366 11.3921,-3.72168 C10.3703,-3.77767 9.35547,-3.72518 8.34766,-3.56421 C7.33984,-3.40324 6.43701,-3.21077 5.63916,-2.98682 C4.68734,-2.70687 3.8125,-2.39193 3.01465,-2.04199 C3.8125,-2.23796 4.68734,-2.39893 5.63916,-2.5249 C6.43701,-2.63688 7.33984,-2.72087 8.34766,-2.77686 C9.35547,-2.83285 10.3703,-2.80485 11.3921,-2.69287 C11.3921,-2.48291 11.4551,-2.26595 11.5811,-2.04199 C10.8952,-2.06999 10.1988,-2.05599 9.49194,-2 C8.78507,-1.94401 8.14469,-1.88802 7.5708,-1.83203 C6.88493,-1.74805 6.22705,-1.64307 5.59717,-1.51709 C6.31104,-1.4891 7.0389,-1.4611 7.78076,-1.43311 C8.45264,-1.40511 9.1665,-1.37012 9.92236,-1.32813 C10.6782,-1.28613 11.4131,-1.23714 12.127,-1.18115 C12.2109,-1.09717 12.2389,-1.06917 12.2109,-1.09717 C12.1829,-1.12516 12.2459,-1.09717 12.3999,-1.01318 L0.915039,-0.530273 L-0.59668,-0.803223"/>
</g>

<g fill="#4c62ad" fill-opacity="1" stroke="none" transform="matrix(1,0,0,1,0,0)"
font-family="MS Shell Dlg 2" font-size="7.8" font-weight="400" font-style="normal" 
>
</g>
</g>
</svg>
